static/img/kroki/adb1b3ef5558026f38f0adba760706ef.svg

<?xml version="1.0" encoding="us-ascii" standalone="no"?><svg xmlns="http://www.w3.org/2000/svg" xmlns:xlink="http://www.w3.org/1999/xlink" contentStyleType="text/css" height="895px" preserveAspectRatio="none" style="width:334px;height:895px;" version="1.1" viewBox="0 0 334 895" width="334px" zoomAndPan="magnify"><defs/><g><!--class aws_ec2_volume_type--><g id="elem_aws_ec2_volume_type"><rect codeLine="23" fill="#3D176E" height="39.7891" id="aws_ec2_volume_type" rx="2.5" ry="2.5" style="stroke:#000D19;stroke-width:0.5;" width="231" x="7" y="849.73"/><ellipse cx="22" cy="869.6245" fill="#ADD1B2" rx="11" ry="11" style="stroke:#181818;stroke-width:1.0;"/><path d="M24.9688,875.2652 Q24.3906,875.562 23.75,875.7027 Q23.1094,875.8589 22.4063,875.8589 Q19.9063,875.8589 18.5781,874.2183 Q17.2656,872.562 17.2656,869.437 Q17.2656,866.312 18.5781,864.6558 Q19.9063,862.9995 22.4063,862.9995 Q23.1094,862.9995 23.75,863.1558 Q24.4063,863.312 24.9688,863.6089 L24.9688,866.3277 Q24.3438,865.7495 23.75,865.4839 Q23.1563,865.2027 22.5313,865.2027 Q21.1875,865.2027 20.5,866.2808 Q19.8125,867.3433 19.8125,869.437 Q19.8125,871.5308 20.5,872.6089 Q21.1875,873.6714 22.5313,873.6714 Q23.1563,873.6714 23.75,873.4058 Q24.3438,873.1245 24.9688,872.5464 L24.9688,875.2652 Z " fill="#000000"/><text fill="#D9B8FF" font-family="Helvetica" font-size="17" lengthAdjust="spacing" textLength="189" x="41" y="875.5098">aws_ec2_volume_type</text></g><!--class aws_resource--><g id="elem_aws_resource"><rect codeLine="26" fill="#3D176E" height="39.7891" id="aws_resource" rx="2.5" ry="2.5" style="stroke:#000D19;stroke-width:0.5;" width="155" x="9" y="267.57"/><ellipse cx="24" cy="287.4645" fill="#ADD1B2" rx="11" ry="11" style="stroke:#181818;stroke-width:1.0;"/><path d="M26.9688,293.1052 Q26.3906,293.402 25.75,293.5427 Q25.1094,293.6989 24.4063,293.6989 Q21.9063,293.6989 20.5781,292.0583 Q19.2656,290.402 19.2656,287.277 Q19.2656,284.152 20.5781,282.4958 Q21.9063,280.8395 24.4063,280.8395 Q25.1094,280.8395 25.75,280.9958 Q26.4063,281.152 26.9688,281.4489 L26.9688,284.1677 Q26.3438,283.5895 25.75,283.3239 Q25.1563,283.0427 24.5313,283.0427 Q23.1875,283.0427 22.5,284.1208 Q21.8125,285.1833 21.8125,287.277 Q21.8125,289.3708 22.5,290.4489 Q23.1875,291.5114 24.5313,291.5114 Q25.1563,291.5114 25.75,291.2458 Q26.3438,290.9645 26.9688,290.3864 L26.9688,293.1052 Z " fill="#000000"/><text fill="#D9B8FF" font-family="Helvetica" font-size="17" lengthAdjust="spacing" textLength="113" x="43" y="293.3498">aws_resource</text></g><!--class phantom_resource--><g id="elem_phantom_resource"><rect codeLine="29" fill="#3D176E" height="39.7891" id="phantom_resource" rx="2.5" ry="2.5" style="stroke:#000D19;stroke-width:0.5;" width="198" x="129.5" y="167.79"/><ellipse cx="144.5" cy="187.6845" fill="#ADD1B2" rx="11" ry="11" style="stroke:#181818;stroke-width:1.0;"/><path d="M147.4688,193.3252 Q146.8906,193.622 146.25,193.7627 Q145.6094,193.9189 144.9063,193.9189 Q142.4063,193.9189 141.0781,192.2783 Q139.7656,190.622 139.7656,187.497 Q139.7656,184.372 141.0781,182.7158 Q142.4063,181.0595 144.9063,181.0595 Q145.6094,181.0595 146.25,181.2158 Q146.9063,181.372 147.4688,181.6689 L147.4688,184.3877 Q146.8438,183.8095 146.25,183.5439 Q145.6563,183.2627 145.0313,183.2627 Q143.6875,183.2627 143,184.3408 Q142.3125,185.4033 142.3125,187.497 Q142.3125,189.5908 143,190.6689 Q143.6875,191.7314 145.0313,191.7314 Q145.6563,191.7314 146.25,191.4658 Q146.8438,191.1845 147.4688,190.6064 L147.4688,193.3252 Z " fill="#000000"/><text fill="#D9B8FF" font-family="Helvetica" font-size="17" lengthAdjust="spacing" textLength="156" x="163.5" y="193.5698">phantom_resource</text></g><!--class quota--><g id="elem_quota"><rect codeLine="32" fill="#3D176E" height="39.7891" id="quota" rx="2.5" ry="2.5" style="stroke:#000D19;stroke-width:0.5;" width="90" x="176.5" y="367.36"/><ellipse cx="191.5" cy="387.2545" fill="#ADD1B2" rx="11" ry="11" style="stroke:#181818;stroke-width:1.0;"/><path d="M194.4688,392.8952 Q193.8906,393.192 193.25,393.3327 Q192.6094,393.4889 191.9063,393.4889 Q189.4063,393.4889 188.0781,391.8483 Q186.7656,390.192 186.7656,387.067 Q186.7656,383.942 188.0781,382.2858 Q189.4063,380.6295 191.9063,380.6295 Q192.6094,380.6295 193.25,380.7858 Q193.9063,380.942 194.4688,381.2389 L194.4688,383.9577 Q193.8438,383.3795 193.25,383.1139 Q192.6563,382.8327 192.0313,382.8327 Q190.6875,382.8327 190,383.9108 Q189.3125,384.9733 189.3125,387.067 Q189.3125,389.1608 190,390.2389 Q190.6875,391.3014 192.0313,391.3014 Q192.6563,391.3014 193.25,391.0358 Q193.8438,390.7545 194.4688,390.1764 L194.4688,392.8952 Z " fill="#000000"/><text fill="#D9B8FF" font-family="Helvetica" font-size="17" lengthAdjust="spacing" textLength="48" x="210.5" y="393.1398">quota</text></g><!--class resource--><g id="elem_resource"><rect codeLine="35" fill="#3D176E" height="39.7891" id="resource" rx="2.5" ry="2.5" style="stroke:#000D19;stroke-width:0.5;" width="113" x="55" y="7"/><ellipse cx="70" cy="26.8945" fill="#ADD1B2" rx="11" ry="11" style="stroke:#181818;stroke-width:1.0;"/><path d="M72.9688,32.5352 Q72.3906,32.832 71.75,32.9727 Q71.1094,33.1289 70.4063,33.1289 Q67.9063,33.1289 66.5781,31.4883 Q65.2656,29.832 65.2656,26.707 Q65.2656,23.582 66.5781,21.9258 Q67.9063,20.2695 70.4063,20.2695 Q71.1094,20.2695 71.75,20.4258 Q72.4063,20.582 72.9688,20.8789 L72.9688,23.5977 Q72.3438,23.0195 71.75,22.7539 Q71.1563,22.4727 70.5313,22.4727 Q69.1875,22.4727 68.5,23.5508 Q67.8125,24.6133 67.8125,26.707 Q67.8125,28.8008 68.5,29.8789 Q69.1875,30.9414 70.5313,30.9414 Q71.1563,30.9414 71.75,30.6758 Q72.3438,30.3945 72.9688,29.8164 L72.9688,32.5352 Z " fill="#000000"/><text fill="#D9B8FF" font-family="Helvetica" font-size="17" lengthAdjust="spacing" textLength="71" x="89" y="32.7798">resource</text></g><!--class type--><g id="elem_type"><rect codeLine="38" fill="#3D176E" height="39.7891" id="type" rx="2.5" ry="2.5" style="stroke:#000D19;stroke-width:0.5;" width="79" x="179" y="528.15"/><ellipse cx="194" cy="548.0445" fill="#ADD1B2" rx="11" ry="11" style="stroke:#181818;stroke-width:1.0;"/><path d="M196.9688,553.6852 Q196.3906,553.982 195.75,554.1227 Q195.1094,554.2789 194.4063,554.2789 Q191.9063,554.2789 190.5781,552.6383 Q189.2656,550.982 189.2656,547.857 Q189.2656,544.732 190.5781,543.0758 Q191.9063,541.4195 194.4063,541.4195 Q195.1094,541.4195 195.75,541.5758 Q196.4063,541.732 196.9688,542.0289 L196.9688,544.7477 Q196.3438,544.1695 195.75,543.9039 Q195.1563,543.6227 194.5313,543.6227 Q193.1875,543.6227 192.5,544.7008 Q191.8125,545.7633 191.8125,547.857 Q191.8125,549.9508 192.5,551.0289 Q193.1875,552.0914 194.5313,552.0914 Q195.1563,552.0914 195.75,551.8258 Q196.3438,551.5445 196.9688,550.9664 L196.9688,553.6852 Z " fill="#000000"/><text fill="#D9B8FF" font-family="Helvetica" font-size="17" lengthAdjust="spacing" textLength="37" x="213" y="553.9298">type</text></g><!--class volume_type--><g id="elem_volume_type"><rect codeLine="41" fill="#3D176E" height="39.7891" id="volume_type" rx="2.5" ry="2.5" style="stroke:#000D19;stroke-width:0.5;" width="151" x="141" y="688.94"/><ellipse cx="156" cy="708.8345" fill="#ADD1B2" rx="11" ry="11" style="stroke:#181818;stroke-width:1.0;"/><path d="M158.9688,714.4752 Q158.3906,714.772 157.75,714.9127 Q157.1094,715.0689 156.4063,715.0689 Q153.9063,715.0689 152.5781,713.4283 Q151.2656,711.772 151.2656,708.647 Q151.2656,705.522 152.5781,703.8658 Q153.9063,702.2095 156.4063,702.2095 Q157.1094,702.2095 157.75,702.3658 Q158.4063,702.522 158.9688,702.8189 L158.9688,705.5377 Q158.3438,704.9595 157.75,704.6939 Q157.1563,704.4127 156.5313,704.4127 Q155.1875,704.4127 154.5,705.4908 Q153.8125,706.5533 153.8125,708.647 Q153.8125,710.7408 154.5,711.8189 Q155.1875,712.8814 156.5313,712.8814 Q157.1563,712.8814 157.75,712.6158 Q158.3438,712.3345 158.9688,711.7564 L158.9688,714.4752 Z " fill="#000000"/><text fill="#D9B8FF" font-family="Helvetica" font-size="17" lengthAdjust="spacing" textLength="109" x="175" y="714.7198">volume_type</text></g><!--reverse link aws_resource to aws_ec2_volume_type--><g id="link_aws_resource_aws_ec2_volume_type"><path codeLine="44" d="M86.8393,325.7693 C87.1293,358.5393 87.5,409.14 87.5,467.15 C87.5,467.15 87.5,467.15 87.5,709.84 C87.5,761.21 105.19,819.8 115.42,849.37 " fill="none" id="aws_resource-backto-aws_ec2_volume_type" style="stroke:#FFAF37;stroke-width:2.0;"/><polygon fill="none" points="86.68,307.77,80.8395,325.8224,92.8391,325.7162,86.68,307.77" style="stroke:#FFAF37;stroke-width:2.0;"/></g><!--reverse link volume_type to aws_ec2_volume_type--><g id="link_volume_type_aws_ec2_volume_type"><path codeLine="45" d="M195.9895,744.4788 C177.9195,774.9988 151.97,818.84 133.88,849.4 " fill="none" id="volume_type-backto-aws_ec2_volume_type" style="stroke:#FFAF37;stroke-width:2.0;"/><polygon fill="none" points="205.16,728.99,190.8266,741.422,201.1525,747.5356,205.16,728.99" style="stroke:#FFAF37;stroke-width:2.0;"/></g><!--reverse link resource to aws_resource--><g id="link_resource_aws_resource"><path codeLine="46" d="M107.9288,64.8166 C103.3188,112.5266 93.03,218.97 88.37,267.08 " fill="none" id="resource-backto-aws_resource" style="stroke:#FFAF37;stroke-width:2.0;"/><polygon fill="none" points="109.66,46.9,101.9566,64.2395,113.901,65.3936,109.66,46.9" style="stroke:#FFAF37;stroke-width:2.0;"/></g><!--reverse link resource to phantom_resource--><g id="link_resource_phantom_resource"><path codeLine="47" d="M136.2881,61.5306 C158.7781,92.0506 191.82,136.9 214.34,167.46 " fill="none" id="resource-backto-phantom_resource" style="stroke:#FFAF37;stroke-width:2.0;"/><polygon fill="none" points="125.61,47.04,131.4579,65.09,141.1183,57.9713,125.61,47.04" style="stroke:#FFAF37;stroke-width:2.0;"/></g><!--reverse link phantom_resource to quota--><g id="link_phantom_resource_quota"><path codeLine="48" d="M227.182,225.9687 C225.842,263.7487 223.53,329.04 222.19,366.88 " fill="none" id="phantom_resource-backto-quota" style="stroke:#FFAF37;stroke-width:2.0;"/><polygon fill="none" points="227.82,207.98,221.1857,225.756,233.1782,226.1814,227.82,207.98" style="stroke:#FFAF37;stroke-width:2.0;"/></g><!--reverse link quota to type--><g id="link_quota_type"><path codeLine="49" d="M220.798,425.4068 C220.218,455.9268 219.44,497.26 218.86,527.83 " fill="none" id="quota-backto-type" style="stroke:#FFAF37;stroke-width:2.0;"/><polygon fill="none" points="221.14,407.41,214.7991,425.2927,226.7969,425.5208,221.14,407.41" style="stroke:#FFAF37;stroke-width:2.0;"/></g><!--reverse link type to volume_type--><g id="link_type_volume_type"><path codeLine="50" d="M218.03,586.1985 C217.64,616.7185 217.13,658.05 216.74,688.61 " fill="none" id="type-backto-volume_type" style="stroke:#FFAF37;stroke-width:2.0;"/><polygon fill="none" points="218.26,568.2,212.0305,586.1219,224.0295,586.2752,218.26,568.2" style="stroke:#FFAF37;stroke-width:2.0;"/></g><!--SRC=[XP1BRy8m48Jl_XMME2FnK0j8lG1IrLvGLNf7Ixmc5h6ThXqGVVptDgHKnWvmdVcyC-DS2UIeIt_W6lKQoJ6tLQO40isdH7O_juKbtf4Iv70Kcu_M-9l00ZJo9onsw5K6CV6Mgsnhq3a-2AmPPDiDsSg8vhmdCExNGkC3Qbw0SrFlIQqhZq4PCLcFfOp9-6XdAFgZUqmmImBf3-drUg8_YP6RKLTt_nDBzO6y7txQmdfCQYOHH-fgove8IYP3J_x5ZYyWX38RVXTehqqdCaXd-Z87OVSrBQ5mOOppI6ZzeSHviWedOo57hV3p9PXbzTTnsBiLPeFLpXQLnbNzX7yozXtOXCvMb9tfPGx6MztglLVMGoYqGN5Gad-M_F3LxNRRkhBmtMMgvT19Yhru6KkcDjnn9MksDienAIWI5lW1]--></g></svg>

<svg xmlns="http://www.w3.org/2000/svg" width="334" height="895" viewBox="0 0 334 895"><rect width="231" height="39.789" x="7" y="849.73" fill="#3D176E" rx="2.5" ry="2.5" style="stroke:#000d19;stroke-width:.5"/><circle cx="22" cy="869.625" r="11" fill="#ADD1B2" style="stroke:#181818;stroke-width:1"/><path d="M24.969 875.265q-.578.297-1.219.438-.64.156-1.344.156-2.5 0-3.828-1.64-1.312-1.657-1.312-4.782t1.312-4.781Q19.906 863 22.406 863q.703 0 1.344.156.656.156 1.219.453v2.719q-.625-.578-1.219-.844-.594-.281-1.219-.281-1.343 0-2.031 1.078-.687 1.062-.687 3.156t.687 3.172q.688 1.062 2.031 1.062.625 0 1.219-.265.594-.281 1.219-.86z"/><text x="41" y="875.51" fill="#D9B8FF" font-family="Helvetica" font-size="17" textLength="189">aws_ec2_volume_type</text><rect width="155" height="39.789" x="9" y="267.57" fill="#3D176E" rx="2.5" ry="2.5" style="stroke:#000d19;stroke-width:.5"/><circle cx="24" cy="287.464" r="11" fill="#ADD1B2" style="stroke:#181818;stroke-width:1"/><path d="M26.969 293.105q-.578.297-1.219.438-.64.156-1.344.156-2.5 0-3.828-1.64-1.312-1.657-1.312-4.782t1.312-4.781q1.328-1.656 3.828-1.656.703 0 1.344.156.656.156 1.219.453v2.719q-.625-.579-1.219-.844-.594-.281-1.219-.281-1.343 0-2.031 1.078-.687 1.062-.687 3.156t.687 3.172q.688 1.062 2.031 1.062.625 0 1.219-.265.594-.281 1.219-.86z"/><text x="43" y="293.35" fill="#D9B8FF" font-family="Helvetica" font-size="17" textLength="113">aws_resource</text><rect width="198" height="39.789" x="129.5" y="167.79" fill="#3D176E" rx="2.5" ry="2.5" style="stroke:#000d19;stroke-width:.5"/><circle cx="144.5" cy="187.685" r="11" fill="#ADD1B2" style="stroke:#181818;stroke-width:1"/><path d="M147.469 193.325q-.578.297-1.219.438-.64.156-1.344.156-2.5 0-3.828-1.64-1.312-1.657-1.312-4.782t1.312-4.781q1.328-1.656 3.828-1.656.703 0 1.344.156.656.156 1.219.453v2.719q-.625-.578-1.219-.844-.594-.281-1.219-.281-1.344 0-2.031 1.078-.687 1.062-.687 3.156t.687 3.172q.688 1.062 2.031 1.062.625 0 1.219-.265.594-.281 1.219-.86z"/><text x="163.5" y="193.57" fill="#D9B8FF" font-family="Helvetica" font-size="17" textLength="156">phantom_resource</text><rect width="90" height="39.789" x="176.5" y="367.36" fill="#3D176E" rx="2.5" ry="2.5" style="stroke:#000d19;stroke-width:.5"/><circle cx="191.5" cy="387.255" r="11" fill="#ADD1B2" style="stroke:#181818;stroke-width:1"/><path d="M194.469 392.895q-.578.297-1.219.438-.64.156-1.344.156-2.5 0-3.828-1.64-1.312-1.657-1.312-4.782t1.312-4.781q1.328-1.656 3.828-1.656.703 0 1.344.156.656.156 1.219.453v2.719q-.625-.579-1.219-.844-.594-.281-1.219-.281-1.344 0-2.031 1.078-.687 1.062-.687 3.156t.687 3.172q.688 1.062 2.031 1.062.625 0 1.219-.265.594-.281 1.219-.86z"/><text x="210.5" y="393.14" fill="#D9B8FF" font-family="Helvetica" font-size="17" textLength="48">quota</text><rect width="113" height="39.789" x="55" y="7" fill="#3D176E" rx="2.5" ry="2.5" style="stroke:#000d19;stroke-width:.5"/><circle cx="70" cy="26.895" r="11" fill="#ADD1B2" style="stroke:#181818;stroke-width:1"/><path d="M72.969 32.535q-.578.297-1.219.438-.64.156-1.344.156-2.5 0-3.828-1.64-1.312-1.657-1.312-4.782t1.312-4.781q1.328-1.656 3.828-1.656.703 0 1.344.156.656.156 1.219.453v2.719q-.625-.578-1.219-.844-.594-.281-1.219-.281-1.344 0-2.031 1.078-.687 1.062-.687 3.156t.687 3.172q.688 1.062 2.031 1.062.625 0 1.219-.265.594-.281 1.219-.86z"/><text x="89" y="32.78" fill="#D9B8FF" font-family="Helvetica" font-size="17" textLength="71">resource</text><rect width="79" height="39.789" x="179" y="528.15" fill="#3D176E" rx="2.5" ry="2.5" style="stroke:#000d19;stroke-width:.5"/><circle cx="194" cy="548.044" r="11" fill="#ADD1B2" style="stroke:#181818;stroke-width:1"/><path d="M196.969 553.685q-.578.297-1.219.438-.64.156-1.344.156-2.5 0-3.828-1.64-1.312-1.657-1.312-4.782t1.312-4.781q1.328-1.657 3.828-1.657.703 0 1.344.157.656.156 1.219.453v2.719q-.625-.579-1.219-.844-.594-.281-1.219-.281-1.344 0-2.031 1.078-.687 1.062-.687 3.156t.687 3.172q.688 1.062 2.031 1.062.625 0 1.219-.265.594-.282 1.219-.86z"/><text x="213" y="553.93" fill="#D9B8FF" font-family="Helvetica" font-size="17" textLength="37">type</text><rect width="151" height="39.789" x="141" y="688.94" fill="#3D176E" rx="2.5" ry="2.5" style="stroke:#000d19;stroke-width:.5"/><circle cx="156" cy="708.835" r="11" fill="#ADD1B2" style="stroke:#181818;stroke-width:1"/><path d="M158.969 714.475q-.578.297-1.219.438-.64.156-1.344.156-2.5 0-3.828-1.64-1.312-1.657-1.312-4.782t1.312-4.781q1.328-1.656 3.828-1.656.703 0 1.344.156.656.156 1.219.453v2.719q-.625-.578-1.219-.844-.594-.281-1.219-.281-1.344 0-2.031 1.078-.687 1.062-.687 3.156t.687 3.172q.688 1.062 2.031 1.062.625 0 1.219-.265.594-.281 1.219-.86z"/><text x="175" y="714.72" fill="#D9B8FF" font-family="Helvetica" font-size="17" textLength="109">volume_type</text><path fill="none" d="M86.84 325.77c.29 32.77.66 83.37.66 141.38v242.69c0 51.37 17.69 109.96 27.92 139.53m-28.74-541.6-5.84 18.052 12-.106z" style="stroke:#ffaf37;stroke-width:2"/><g fill="none"><path d="M195.99 744.479c-18.07 30.52-44.02 74.361-62.11 104.921" style="stroke:#ffaf37;stroke-width:2"/><path d="m205.16 728.99-14.333 12.432 10.326 6.114z" style="stroke:#ffaf37;stroke-width:2"/></g><g fill="none"><path d="M107.929 64.817c-4.61 47.71-14.899 154.153-19.559 202.263" style="stroke:#ffaf37;stroke-width:2"/><path d="m109.66 46.9-7.703 17.34 11.944 1.154z" style="stroke:#ffaf37;stroke-width:2"/></g><g fill="none"><path d="M136.288 61.53c22.49 30.52 55.532 75.37 78.052 105.93" style="stroke:#ffaf37;stroke-width:2"/><path d="m125.61 47.04 5.848 18.05 9.66-7.119z" style="stroke:#ffaf37;stroke-width:2"/></g><path fill="none" d="M227.182 225.969c-1.34 37.78-3.652 103.071-4.992 140.911m5.63-158.9-6.634 17.776 11.992.425zm-7.022 217.427c-.58 30.52-1.358 71.853-1.938 102.423m2.28-120.42-6.34 17.883 11.997.228zm-3.11 178.789c-.39 30.52-.9 71.851-1.29 102.411m1.52-120.41-6.23 17.922 12 .153z" style="stroke:#ffaf37;stroke-width:2"/></svg>
